X: 178
T:The Flavor of the Month, Bmi
M:2/2
L:1/8
C:Brendan Callahan
R:reel
Z:Robert Greenway
K:Bm
FG|:B3c dBBc|dBeB fBBA|FAAf ecAc|dBcA BAFE|!
DFBc dBBc|dBeB fBBA|FAAf ecAc|1 dfcA B2FG:|2 dfcA B3d|!
|:f~b3 d'bfb|afeg fdBd|cAeA fAeA|dfcA BAFe|!
dBFB cAFe|dBFd|ecAc|f~b3 afec|1 dfcA B3d:|2 dfcA B2FG:||!
<end>
<start>
